X:9
T:The Auld Wife ayont the fire
R:strathspey
C:traditional
O:18th century Scottish
B:Bremner's Collections, 1757
N:melodic code 326L4 3211H   (3264 3211)
Z:Paul Stewart Cranford (P.S.C.), <http://www.cranfordpub.com>
L:1/8
Q:244
M:C
K:G
d|TB2 AG E/E/E cA|TB2 AG G/G/G gd|TB2 AG E/E/E cA|BdAB G2 G:|
|:c|B>cde c/c/c cA|B>cde d/d/d gd|B>cde c/c/c cA|BdAB G2 G:|
